X: 6
T: Prelude in B Minor, Op. 28, No. 6
C: Frederic Chopin
%%abc-version 2.0
%%abcx-abcm2ps-target-version 5.9.1 (29 Sep 2008)
%%abc-creator hum2abc beta
%%abcx-conversion-date 2021/01/25 16:34:28
%%abc-copyright Copyright 2001 by Craig Stuart Sapp
%%abc-edited-by Craig Stuart Sapp
%%abc-edited-by 4 March 2001
%%gracespace 0 6 6
%%humdrum-veritas 3676646591
%%humdrum-veritas-data 4284339968
%%linebreak <none>
%%barnumbers 0
L: 1/8
M: 3/4
N: Derived from prelude28-06.krn
Q: "Lento assai" 1/4=60
%%staves {1 2}
V: 1 clef=treble
V: 2 clef=bass
K: D
[V:1] [D2F2]F2F2 & B B B B B B [I:setbarnb 2]| 
[V:2] B,,/ D,/ F,/ B,/D2C3/ D/ | 
[V:1] [D2F2][D2F2][D2F2] & B B B B B B | 
[V:2] B,2>F,2 D, C, | 
[V:1] [D2F2]B2B2 & B B d d d d | 
[V:2] B,,/ F,/ B,/ D/F2E3/ F/ | 
[V:1] [F2B2][F2B2][F2B2] & d d d d d d | 
[V:2] D2>B,2 F, D, | 
[V:1] [G2B2]B2B2 & d d d d d d | 
[V:2] G,,/ D,/ B,/ D/G2F2 | 
[V:1] [^G2B2][G2B2]=G2 & d d c c [^Ac] [Bd] | 
[V:2] F2^E2=E D | 
[V:1] [G^A] [GB] [GA] [FC] [FB] F & e2>f2 e/ d/ {/d} c/ B/ | 
[V:2] C {/E} D C ^A, B, D, | 
[V:1] [C^^F^A] [D^GB] [DBd] [CAc]z2 | 
[V:2] E, ^E,F,2D, C, | 
[V:1] [D2F2]F2F2 & B B B B B B | 
[V:2] B,,/ D,/ F,/ B,/D2C3/ D/ | 
[V:1] [D2F2][D2F2][D2F2] & B B B B B B | 
[V:2] B,2>F,2 D, B,, | 
[V:1] [D2G2]G2G2 & B B B B B B | 
[V:2] G,,/ D,/ G,/ B,/D2E =F | 
[V:1] G2[E2G2][E2G2] & =c c c c c c | 
[V:2] E2>=C2 G, =C, | 
[V:1] [E2G2]G2[E2G2] & =c c c c c c | 
[V:2] =C,,/ G,,/ E,/ G,/E2=C,,/ G,,/ E,/ G,/ | 
[V:1] G2G2G2 & =c c c c B B | 
[V:2] E4z2 | 
[V:1] [C2G2][C2F2][D2F2] & ^A A A A B B | 
[V:2] E,2>F,2 E,/ D,/ C,/ B,,/ | 
[V:1] [C2G2][C2G2][D2G2] & B B ^A A B B | 
[V:2] E,2>F,2 E,/ D,/ C,/ B,,/ | 
[V:1] [D2G2][C2F2][C2E2] & B B B B ^A A | 
[V:2] A,,/ G,,/ D,,/ E,,/F,,4 | 
[V:1] [C2E2][B,2D2][D2G2] & ^A A B B B B | 
[V:2] G,,4G,2 | 
[V:1] [C2G2][C2G2][D2F2] & B B ^A A B B | 
[V:2] E,2>F,2 E,/ D,/ C,/ B,,/ | 
[V:1] [C2G2][C2G2][D2G2] & B B ^A A B B | 
[V:2] E,2>F,2 E,/ D,/ C,/ B,,/ | 
[V:1] [D2G2][C2F2][C2F2] & B B B B ^A A | 
[V:2] A,,/ G,,/ D,,/ E,,/F,,4 | 
[V:1] [D2F2][D2F2][D2F2] & B B B B =A A | 
[V:2] B,,,6- | 
[V:1] D2x2x2 & F F F F F F | 
[V:2] B,,,/ B,,/ F,/ B,/D2C3/ D/ | 
[V:1] D2D2D2 & F F F F F F | 
[V:2] B,2>F,2 D, C, | 
[V:1] D2x2D2 & F Fz2F F | 
[V:2] B,,6- | 
[V:1] D2z2z2 & F Fx4 |]  
[V:2] B,,2z2z2 |]  


